packages/astro-components-stencil/src/icons/brightness-3.svg

<svg width="24" height="24" viewBox="0 0 24 24" fill="none" xmlns="http://www.w3.org/2000/svg">
<path d="M18.87 10.37C18.12 5.61 13.87 2.02 9.05002 2C8.56002 2 8.08003 2.03 7.61003 2.1C7.11003 2.17 7.01002 2.83 7.47003 3.06C10.75 4.69 13 8.08 13 12C13 15.92 10.75 19.31 7.47003 20.95C7.02003 21.18 7.11003 21.84 7.61003 21.91C8.08003 21.97 8.56002 22 9.05002 22C13.87 21.98 18.12 18.39 18.87 13.63C18.96 13.08 18.98 12.54 18.98 12C18.98 11.46 18.96 10.92 18.87 10.37Z" fill="black"/>
</svg>

<svg xmlns="http://www.w3.org/2000/svg" viewBox="0 0 24 24"><g xmlns="http://www.w3.org/2000/svg" id="brightness-3" fill-rule="nonzero">
            <path d="M18.87 10.37c-.75-4.76-5-8.35-9.82-8.37-.49 0-.97.03-1.44.1-.5.07-.6.73-.14.96A9.97 9.97 0 0113 12c0 3.92-2.25 7.31-5.53 8.95-.45.23-.36.89.14.96.47.06.95.09 1.44.09 4.82-.02 9.07-3.61 9.82-8.37.09-.55.11-1.09.11-1.63 0-.54-.02-1.08-.11-1.63z"/>
        </g></svg>
